icons/email-filled.svg

<svg xmlns="http://www.w3.org/2000/svg" width="24" height="24" viewBox="0 0 24 24">
    <path fill="#3A3A47" fill-rule="evenodd" d="M2.043 5.454l8.544 8.55c.47.389.941.583 1.413.583.472 0 .943-.193 1.415-.581L21.96 5.47c.027.163.041.34.041.529v12c0 1.333-.667 2-2 2H4c-1.333 0-2-.667-2-2V6c0-.196.014-.378.043-.546zM20 4c.193 0 .373.014.538.042L12 12.588 3.457 4.043C3.624 4.014 3.805 4 4 4h16z"/>
</svg>

<svg width="24" height="24" viewBox="0 0 24 24" fill="none" xmlns="http://www.w3.org/2000/svg">
<path fill-rule="evenodd" clip-rule="evenodd" d="M2.043 5.454L10.587 14.004C11.057 14.393 11.528 14.587 12 14.587C12.472 14.587 12.943 14.394 13.415 14.006L21.96 5.47C21.987 5.633 22.001 5.81 22.001 5.999V17.999C22.001 19.332 21.334 19.999 20.001 19.999H4C2.667 19.999 2 19.332 2 17.999V6C2 5.803 2.014 5.621 2.043 5.454ZM3.457 4.043C3.624 4.014 3.805 4 4 4H20C20.194 4 20.373 4.014 20.539 4.042L12 12.588L3.457 4.043Z" fill="#3A3A47"/>
</svg>
